Papirus/16x16/apps/steam_icon_341800.svg

<svg width="16" height="16" version="1.1" xmlns="http://www.w3.org/2000/svg">
 <circle cx="6.2857141" cy="9.7142859" r="5.7142859" style="fill:#e4e4e4"/>
 <path d="m11.714286 7.9999994 0.857143-1.142857-2.285715-2.571428-1.7142855 0.285714z" style="fill:#e4e4e4"/>
 <path d="m11.636473 5.8300784s1.121836 0.100396 1.533363-0.251473c0.411528-0.351868 0.351567-0.446751 0.336394-0.676172-0.01517-0.229421-0.185928-0.320353-0.186988-0.593831-0.0011-0.273479 0.109329-0.308603 0.109329-0.308603h0.285715l0.285714 0.857143v-0.571428l1.142857 0.571428-0.857143-0.857143h1.142857l-1.142857-0.857142 1.142857-0.857143-1.428571 0.285714 0.571428-2-1.21599 1.807592-0.498295-1.236163v1.142857l-0.571429-0.571429 0.201637 1.015619-1.344494-0.44419 1.142857 0.857143 0.571429 0.285714s-0.104351 0.496184-0.07664 0.751318c0.02771 0.255134 0.225541 0.546365 0.216395 0.723582-0.0091 0.177216-0.03933 0.47129-0.848622 0.459475-0.809291-0.01181-1.088117-0.09121-1.088117-0.09121z" style="fill:#e4e4e4"/>
 <circle cx="6.2857141" cy="9.7142859" r="4.5714288" style="fill:#4f4f4f"/>
 <circle cx="6.2857141" cy="9.7142859" r="4.2857141" style="fill:#c2352a"/>
 <rect x="8.2857141" y="9.7142859" width="2" height=".5714286" ry=".2857143" style="fill:#e4e4e4"/>
 <rect transform="rotate(-30)" x="2.3656578" y="11.884797" width="2" height=".5714286" ry=".2857143" style="fill:#e4e4e4"/>
 <rect transform="matrix(.8660254 .5 .5 -.86602541 0 0)" x="12.349082" y="-5.4070024" width="2" height=".5714286" ry=".2857143" style="fill:#e4e4e4"/>
 <path d="m6.2857143 5.4285714c-2.3669346 0-4.2857145 1.91878-4.2857145 4.2857141 6.29e-4 1.6855715 0.989257 3.2142445 2.5262279 3.9062505 0.2619563 0.01895 0.5814946 0.02459 0.9302454-0.01005 0.8785477-0.08725 0.9902852-0.244513 1.1796874-0.385603 0.1894023-0.14109 0.2360492-0.581473 0.2360492-0.581473s-0.017817-0.977116 0.021763-1.051898c0.03958-0.07478 0.4946-0.54545 0.4720983-0.639509-0.019209-0.080291-0.449694-0.382979-0.561384-0.47042-0.1116903-0.08744-0.7466517-0.4905132-0.7466517-0.4905132s-0.098011-0.039575-0.1104911-0.1121652c-0.01248-0.07259 0.1183037-0.1395088 0.1183037-0.1395088s1.5878617-0.7009984 1.627232-0.7834824c0.039591-0.08295-0.2618949-0.238652-0.3554686-0.462053-0.093574-0.223401 0.00873-0.559079 0.057477-0.59375 3e-7 0 0.3093266-9e-3 0.4531252-0.02232 0.1437988-0.01334 0.3824983-0.0935 0.468192-0.400112 0.085694-0.306608-0.5541374-0.649908-1.0429683-1.095979-0.2711157-0.247401-0.3361869-0.619092-0.3420757-0.904018-0.2136694-0.03263-0.4295012-0.04904-0.6456472-0.04911z" style="fill:#e4e4e4"/>
</svg>

<?xml version="1.0" encoding="UTF-8" standalone="no"?>
<svg
   width="16"
   height="16"
   version="1.1"
   id="svg4367"
   sodipodi:docname="steam_icon_341800@16x16.svg"
   inkscape:version="1.1.1 (3bf5ae0d25, 2021-09-20, custom)"
   xmlns:inkscape="http://www.inkscape.org/namespaces/inkscape"
   xmlns:sodipodi="http://sodipodi.sourceforge.net/DTD/sodipodi-0.dtd"
   xmlns="http://www.w3.org/2000/svg"
   xmlns:svg="http://www.w3.org/2000/svg">
  <defs
     id="defs4371" />
  <sodipodi:namedview
     id="namedview4369"
     pagecolor="#505050"
     bordercolor="#eeeeee"
     borderopacity="1"
     inkscape:pageshadow="0"
     inkscape:pageopacity="0"
     inkscape:pagecheckerboard="0"
     showgrid="false"
     inkscape:zoom="29.468074"
     inkscape:cx="6.057403"
     inkscape:cy="6.5155259"
     inkscape:window-width="1920"
     inkscape:window-height="1011"
     inkscape:window-x="0"
     inkscape:window-y="32"
     inkscape:window-maximized="1"
     inkscape:current-layer="svg4367" />
  <circle
     style="fill:#e4e4e4;fill-opacity:1;stroke-width:0.292717"
     id="path2734"
     cx="6.2857141"
     cy="9.7142859"
     r="5.7142859" />
  <path
     style="fill:#e4e4e4;fill-opacity:1;stroke:none;stroke-width:0.285714px;stroke-linecap:butt;stroke-linejoin:miter;stroke-opacity:1"
     d="m 11.714286,7.9999994 0.857143,-1.142857 -2.285715,-2.571428 -1.7142855,0.285714 z"
     id="path3031" />
  <path
     style="fill:#e4e4e4;fill-opacity:1;stroke:none;stroke-width:0.285714px;stroke-linecap:butt;stroke-linejoin:miter;stroke-opacity:1"
     d="m 11.636473,5.8300784 c 0,0 1.121836,0.100396 1.533363,-0.251473 0.411528,-0.351868 0.351567,-0.446751 0.336394,-0.676172 -0.01517,-0.229421 -0.185928,-0.320353 -0.186988,-0.593831 -0.0011,-0.273479 0.109329,-0.308603 0.109329,-0.308603 h 0.285715 L 14,4.8571424 v -0.571428 l 1.142857,0.571428 -0.857143,-0.857143 h 1.142857 L 14.285714,3.1428574 15.428571,2.2857144 14,2.5714284 14.571428,0.57142843 13.355438,2.3790204 12.857143,1.1428574 v 1.142857 l -0.571429,-0.571429 0.201637,1.015619 -1.344494,-0.44419 1.142857,0.857143 0.571429,0.285714 c 0,0 -0.104351,0.496184 -0.07664,0.751318 0.02771,0.255134 0.225541,0.546365 0.216395,0.723582 -0.0091,0.177216 -0.03933,0.47129 -0.848622,0.459475 -0.809291,-0.01181 -1.088117,-0.09121 -1.088117,-0.09121 z"
     id="path5759"
     sodipodi:nodetypes="cssccccccccccccccccccccssscc" />
  <circle
     style="fill:#4f4f4f;fill-opacity:1;stroke-width:0.234174"
     id="circle11261"
     cx="6.2857141"
     cy="9.7142859"
     r="4.5714288" />
  <circle
     style="fill:#c2352a;fill-opacity:1;stroke-width:0.219537"
     id="circle11281"
     cx="6.2857141"
     cy="9.7142859"
     r="4.2857141" />
  <rect
     style="fill:#e4e4e4;fill-opacity:1;stroke:none;stroke-width:0.285714"
     id="rect34557"
     width="2"
     height="0.5714286"
     x="8.2857141"
     y="9.7142859"
     ry="0.2857143" />
  <rect
     style="fill:#e4e4e4;fill-opacity:1;stroke:none;stroke-width:0.285714"
     id="rect34741"
     width="2"
     height="0.5714286"
     x="2.3656578"
     y="11.884797"
     ry="0.2857143"
     transform="rotate(-30)" />
  <rect
     style="fill:#e4e4e4;fill-opacity:1;stroke:none;stroke-width:0.285714"
     id="rect34743"
     width="2"
     height="0.5714286"
     x="12.349082"
     y="-5.4070024"
     ry="0.2857143"
     transform="matrix(0.8660254,0.5,0.5,-0.86602541,0,0)" />
  <path
     id="path35519"
     style="fill:#e4e4e4;fill-opacity:1;stroke-width:0.219537"
     d="m 6.2857143,5.4285714 c -2.3669346,0 -4.2857145,1.91878 -4.2857145,4.2857141 6.29e-4,1.6855715 0.989257,3.2142445 2.5262279,3.9062505 0.2619563,0.01895 0.5814946,0.02459 0.9302454,-0.01005 0.8785477,-0.08725 0.9902852,-0.244513 1.1796874,-0.385603 0.1894023,-0.14109 0.2360492,-0.581473 0.2360492,-0.581473 0,0 -0.017817,-0.977116 0.021763,-1.051898 0.03958,-0.07478 0.4946,-0.54545 0.4720983,-0.639509 C 7.346862,10.871712 6.916377,10.569024 6.804687,10.481583 6.6929967,10.394143 6.0580353,9.9910698 6.0580353,9.9910698 c 0,0 -0.098011,-0.039575 -0.1104911,-0.1121652 -0.01248,-0.07259 0.1183037,-0.1395088 0.1183037,-0.1395088 0,0 1.5878617,-0.7009984 1.627232,-0.7834824 0.039591,-0.08295 -0.2618949,-0.238652 -0.3554686,-0.462053 -0.093574,-0.223401 0.00873,-0.559079 0.057477,-0.59375 3e-7,0 0.3093266,-0.009 0.4531252,-0.02232 0.1437988,-0.01334 0.3824983,-0.0935 0.468192,-0.400112 C 8.4020995,7.1710704 7.7622681,6.8277704 7.2734372,6.3816994 7.0023215,6.1342984 6.9372503,5.7626074 6.9313615,5.4776814 6.7176921,5.4450514 6.5018603,5.4286414 6.2857143,5.4285714 Z"
     sodipodi:nodetypes="cccsscssscscsssssscc" />
</svg>
